X: 177
T: the Ladies Lesson
B: 204 Favourite Country Dances
N: Published by Straight & Skillern, London ca.1775
F: http://imslp.org/wiki/204_Favourite_Country_Dances_(Various) p.89 #177
Z: 2014 John Chambers <jc:trillian.mit.edu>
M: 6/8
L: 1/8
K: D
% - - - - - - - - - - - - - - - - - - - - - - - - -
|:\
d2D d2D | def ecA | d2D d2D | agf e2A |\
d2D d2D | def ecA | dcB Agf | edc d3 :|
|:\
e2A g2e | f2d ecA | e2A g2e | (f/g/a)f e3 |\
e2A g2e | (f/g/a)f ecA | d2f (e/f/g)e | (f/g/a)c d3 :|
% - - - - - - - - - - - - - - - - - - - - - - - - -
%%begintext align
%% First 2d and 3d Cu. foot it and hands round 6 .|
%% The same back again .|. Lead down one Cu. up
%% again and cast off :|. Lead thro' the 3d Cu. cast
%% up right and Left at top :|:
%%endtext

%%sep 1 1 500
%%sep 1 1 500
